blockchains/eos/logo.svg

<svg fill="none" height="250" viewBox="0 0 250 250" width="250" xmlns="http://www.w3.org/2000/svg" xmlns:xlink="http://www.w3.org/1999/xlink"><clipPath id="a"><path d="m0 0h250v250h-250z"/></clipPath><g clip-path="url(#a)" clip-rule="evenodd" fill-rule="evenodd"><path d="m249.784 125c0 69.036-55.688 125-124.384 125-68.6963 0-124.38438-55.964-124.38438-125 0-69.0363 55.68808-125 124.38438-125 68.696 0 124.384 55.9637 124.384 125z" fill="#fff"/><path d="m78.1927 94.5306 9.633 29.8534-26.915 47.557zm84.7263 29.8534 9.634-29.8534 17.281 77.4104zm-2.228 6.901 32.052 56.633-62.626 38.114zm-40.062 94.747-62.6284-38.114 32.0517-56.633zm4.744-157.1549 31.75 56.1019-31.75 98.389-31.7517-98.389zm-2.666-6.1262-31.3123 55.3271-10.7168-33.212 42.0291-58.1807zm5.331-36.0656 42.028 58.1807-10.716 33.212-31.312-55.3271zm70.905 161.5867-23.321-104.463c-.08-.3564-.23-.6918-.443-.9863l-47.648-65.9592c-.503-.6943-1.304-1.1052-2.158-1.1052-.853 0-1.656.4109-2.158 1.1052l-47.6479 65.9592c-.2131.2945-.3646.6299-.4446.9863l-23.3214 104.463c-.25 1.124.2414 2.282 1.2204 2.879l70.9695 43.192c.032.018.066.032.098.049.045.025.091.05.139.072.074.036.148.067.225.095.047.018.093.035.141.05.085.026.168.044.254.062.044.008.087.021.13.027.13.02.263.031.395.031s.264-.011.394-.031c.045-.006.086-.019.13-.027.086-.018.171-.036.254-.062.048-.015.095-.032.143-.05.075-.028.151-.059.224-.095.047-.022.093-.047.14-.072.03-.017.064-.031.096-.049l70.97-43.192c.979-.597 1.471-1.755 1.219-2.879z" fill="#000"/></g></svg>

<svg width="250" height="250" viewBox="0 0 250 250" fill="none" xmlns="http://www.w3.org/2000/svg">
<g clip-path="url(#clip0_9_696)">
<path fill-rule="evenodd" clip-rule="evenodd" d="M249.784 125C249.784 194.036 194.096 250 125.4 250C56.7037 250 1.01562 194.036 1.01562 125C1.01562 55.9637 56.7037 0 125.4 0C194.096 0 249.784 55.9637 249.784 125Z" fill="white"/>
<path fill-rule="evenodd" clip-rule="evenodd" d="M78.1927 94.5306L87.8257 124.384L60.9107 171.941L78.1927 94.5306ZM162.919 124.384L172.553 94.5306L189.834 171.941L162.919 124.384ZM160.691 131.285L192.743 187.918L130.117 226.032L160.691 131.285ZM120.629 226.032L58.0006 187.918L90.0523 131.285L120.629 226.032ZM125.373 68.8771L157.123 124.979L125.373 223.368L93.6213 124.979L125.373 68.8771ZM122.707 62.7509L91.3947 118.078L80.6779 84.866L122.707 26.6853V62.7509ZM128.038 26.6853L170.066 84.866L159.35 118.078L128.038 62.7509V26.6853ZM198.943 188.272L175.622 83.809C175.542 83.4526 175.392 83.1172 175.179 82.8227L127.531 16.8635C127.028 16.1692 126.227 15.7583 125.373 15.7583C124.52 15.7583 123.717 16.1692 123.215 16.8635L75.5671 82.8227C75.354 83.1172 75.2025 83.4526 75.1225 83.809L51.8011 188.272C51.5511 189.396 52.0425 190.554 53.0215 191.151L123.991 234.343C124.023 234.361 124.057 234.375 124.089 234.392C124.134 234.417 124.18 234.442 124.228 234.464C124.302 234.5 124.376 234.531 124.453 234.559C124.5 234.577 124.546 234.594 124.594 234.609C124.679 234.635 124.762 234.653 124.848 234.671C124.892 234.679 124.935 234.692 124.978 234.698C125.108 234.718 125.241 234.729 125.373 234.729C125.505 234.729 125.637 234.718 125.767 234.698C125.812 234.692 125.853 234.679 125.897 234.671C125.983 234.653 126.068 234.635 126.151 234.609C126.199 234.594 126.246 234.577 126.294 234.559C126.369 234.531 126.445 234.5 126.518 234.464C126.565 234.442 126.611 234.417 126.658 234.392C126.688 234.375 126.722 234.361 126.754 234.343L197.724 191.151C198.703 190.554 199.195 189.396 198.943 188.272Z" fill="black"/>
</g>
<defs>
<clipPath id="clip0_9_696">
<rect width="250" height="250" fill="white"/>
</clipPath>
</defs>
</svg>
